X: 11502
T: NORTH AND SOUTH
T: BOTH SIDES OF THE TWEED
Q: "Strathspey."
%R: strathspey
B: W. Hamilton "Universal Tune-Book" Vol. 1 Glasgow 1844 p.150 #2
S: http://imslp.org/wiki/Hamilton's_Universal_Tune-Book_(Various)
Z: 2016 John Chambers <jc:trillian.mit.edu>
M: C
L: 1/16
K: G
% - - - - - - - - - - - - - - - - - - - - - - - - -
g2 |\
GG3B3G B3GAg3 | GG3B3G D3GB3G |\
c3AB3G A3GA2a2 | eg3d3B G4G2 :|
|: g2 |\
eg3d3g c3BA2a2 | eg3d3B d3eg3a |\
bagf gedB c3BA2a2 | eg3d3B G4G2 :|
% - - - - - - - - - - - - - - - - - - - - - - - - -

%%sep 1 1 500
%%sep 1 1 500

